1-js/08-prototypes/03-native-prototypes/object-prototype-1.svg

<?xml version="1.0" encoding="UTF-8"?>
<svg width="453px" height="199px" viewBox="0 0 453 199" version="1.1" xmlns="http://www.w3.org/2000/svg" xmlns:xlink="http://www.w3.org/1999/xlink">
    <!-- Generator: sketchtool 61.2 (101010) - https://sketch.com -->
    <title>object-prototype-1.svg</title>
    <desc>Created with sketchtool.</desc>
    <g id="inheritance" stroke="none" stroke-width="1" fill="none" fill-rule="evenodd">
        <g id="object-prototype-1.svg">
            <rect id="Rectangle-1" stroke="#E8C48E" stroke-width="2" fill="#FFF9EB" x="238" y="23" width="208" height="58"></rect>
            <text id="constructor:-Object" font-family="PTMono-Regular, PT Mono" font-size="14" font-weight="normal" fill="#8A704D">
                <tspan x="248" y="40">constructor: Object</tspan>
                <tspan x="248" y="55">toString: function</tspan>
                <tspan x="248" y="70">...</tspan>
            </text>
            <rect id="Rectangle-1-Copy" stroke="#E8C48E" stroke-width="2" fill="#FFF9EB" x="238" y="164" width="178" height="28"></rect>
            <text id="Object.prototype" font-family="PTMono-Regular, PT Mono" font-size="14" font-weight="normal" fill="#8A704D">
                <tspan x="237" y="15">Object.prototype</tspan>
            </text>
            <rect id="Rectangle-1-Copy-2" stroke="#E8C48E" stroke-width="2" fill="#FFF9EB" x="10" y="23" width="108" height="28"></rect>
            <text id="Object" font-family="PTMono-Regular, PT Mono" font-size="14" font-weight="normal" fill="#8A704D">
                <tspan x="9" y="15">Object</tspan>
            </text>
            <text id="obj-=-new-Object()" font-family="PTMono-Regular, PT Mono" font-size="14" font-weight="normal" fill="#8A704D">
                <tspan x="243" y="154">obj = new Object()</tspan>
            </text>
            <path id="Line" d="M326.5,94.5 L333.5,108.5 L327.5,108.5 L327.5,136.5 L325.5,136.5 L325.5,108.5 L319.5,108.5 L326.5,94.5 Z" fill="#EE6B47" fill-rule="nonzero"></path>
            <path id="Line-Copy" d="M212.5,27 L226.5,34 L212.5,41 L212.5,35 L127,35 L127,33 L212.5,33 L212.5,27 Z" fill="#EE6B47" fill-rule="nonzero"></path>
            <text id="[[Prototype]]" font-family="PTMono-Regular, PT Mono" font-size="14" font-weight="normal" fill="#8A704D">
                <tspan x="336" y="118">[[Prototype]]</tspan>
            </text>
            <text id="prototype" font-family="PTMono-Regular, PT Mono" font-size="14" font-weight="normal" fill="#8A704D">
                <tspan x="134" y="22">prototype</tspan>
            </text>
        </g>
    </g>
</svg>

<svg xmlns="http://www.w3.org/2000/svg" width="453" height="199" viewBox="0 0 453 199"><defs><style>@import url(https://fonts.googleapis.com/css?family=Open+Sans:bold,italic,bolditalic%7CPT+Mono);@font-face{font-family:&apos;PT Mono&apos;;font-weight:700;font-style:normal;src:local(&apos;PT MonoBold&apos;),url(/font/PTMonoBold.woff2) format(&apos;woff2&apos;),url(/font/PTMonoBold.woff) format(&apos;woff&apos;),url(/font/PTMonoBold.ttf) format(&apos;truetype&apos;)}</style></defs><g id="inheritance" fill="none" fill-rule="evenodd" stroke="none" stroke-width="1"><g id="object-prototype-1.svg"><path id="Rectangle-1" fill="#FFF9EB" stroke="#E8C48E" stroke-width="2" d="M238 23h208v58H238z"/><text id="constructor:-Object" fill="#8A704D" font-family="PTMono-Regular, PT Mono" font-size="14" font-weight="normal"><tspan x="248" y="40">constructor: Object</tspan> <tspan x="248" y="55">toString: function</tspan> <tspan x="248" y="70">...</tspan></text><path id="Rectangle-1-Copy" fill="#FFF9EB" stroke="#E8C48E" stroke-width="2" d="M238 164h178v28H238z"/><text id="Object.prototype" fill="#8A704D" font-family="PTMono-Regular, PT Mono" font-size="14" font-weight="normal"><tspan x="237" y="15">Object.prototype</tspan></text><path id="Rectangle-1-Copy-2" fill="#FFF9EB" stroke="#E8C48E" stroke-width="2" d="M10 23h108v28H10z"/><text id="Object" fill="#8A704D" font-family="PTMono-Regular, PT Mono" font-size="14" font-weight="normal"><tspan x="9" y="15">Object</tspan></text><text id="obj-=-new-Object()" fill="#8A704D" font-family="PTMono-Regular, PT Mono" font-size="14" font-weight="normal"><tspan x="243" y="154">obj = new Object()</tspan></text><path id="Line" fill="#EE6B47" fill-rule="nonzero" d="M326.5 94.5l7 14h-6v28h-2v-28h-6l7-14z"/><path id="Line-Copy" fill="#EE6B47" fill-rule="nonzero" d="M212.5 27l14 7-14 7v-6H127v-2h85.5v-6z"/><text id="[[Prototype]]" fill="#8A704D" font-family="PTMono-Regular, PT Mono" font-size="14" font-weight="normal"><tspan x="336" y="118">[[Prototype]]</tspan></text><text id="prototype" fill="#8A704D" font-family="PTMono-Regular, PT Mono" font-size="14" font-weight="normal"><tspan x="134" y="22">prototype</tspan></text></g></g></svg>
